T: Trip To Cullenstown, The
M: 4/4
L: 1/8
K: Gmaj
|:d3e dBGA | B3G AGEG | d3e dBGA | BAAG A4 |
BABd e2 dB | d3B AGEG | B2 BG AGEG |1 DGGF GABc :|2 DGGF G3 A ||
|:Bd d2 ce e2 | d3e dBGA | Bd d2 ed d2 | gedB A4 |
BABd e2 dB | d3B AGEG | B2 BG AGEG | DGGF G4 :|
